icons/glyphs/glyph-paint-bucket.svg

<?xml version="1.0" encoding="UTF-8" standalone="no"?><svg height="22" viewBox="0 0 5.8208332 5.8208335" width="22" xmlns="http://www.w3.org/2000/svg"><sodipodi:namedview/><metadata><rdf:RDF><cc:Work><dc:format>image/svg+xml</dc:format><dc:type/><dc:title/><cc:license/><dc:creator><cc:Agent><dc:title>PixelPimps &amp; CodePoets</dc:title></cc:Agent></dc:creator></cc:Work><cc:License><cc:permits/><cc:permits/><cc:requires/><cc:requires/><cc:permits/></cc:License></rdf:RDF></metadata><path d="m2.9030706-.00000003c-1.2438033 0-2.25663783 1.01283443-2.25663789 2.25663813v.2109722h.0146916v3.3532231h4.51327629v-3.6106209h-.0170421c-.0250698-1.22226997-1.0261499-2.21021253-2.2542879-2.21021253zm0 .42194434c.9997141.00000004 1.8053129.79465959 1.8299927 1.78826819h-.7678513v.8157028c0 .2959563-.2382379.5341941-.5341941.5341941h-.038703c-.2959562 0-.5341942-.2382378-.5341942-.5341941v-.3864123c0-.095814-.077327-.1731421-.1731419-.1731421-.095814 0-.1731422.077327-.1731422.1731421v.2344547c0 .1682343-.1352731.3035078-.3035078.3035078-.1682345 0-.296807-.1354069-.3035078-.3035078v-.6637452h-.8340937c.0247464-.9936086.8326296-1.78826821 1.8323433-1.78826819z" fill="#d0d0d0" stroke-linecap="round" stroke-width=".300885"/></svg>

<?xml version="1.0" encoding="UTF-8" standalone="no"?>
<!-- Created with Inkscape (http://www.inkscape.org/) -->

<svg
   xmlns:dc="http://purl.org/dc/elements/1.1/"
   xmlns:cc="http://creativecommons.org/ns#"
   xmlns:rdf="http://www.w3.org/1999/02/22-rdf-syntax-ns#"
   xmlns:svg="http://www.w3.org/2000/svg"
   xmlns="http://www.w3.org/2000/svg"
   xmlns:sodipodi="http://sodipodi.sourceforge.net/DTD/sodipodi-0.dtd"
   xmlns:inkscape="http://www.inkscape.org/namespaces/inkscape"
   width="22"
   height="22"
   viewBox="0 0 5.8208332 5.8208335"
   version="1.1"
   id="svg8"
   inkscape:version="0.92+devel 15740 custom"
   sodipodi:docname="glyph-paint-bucket.svg">
  <defs
     id="defs2" />
  <sodipodi:namedview
     id="base"
     pagecolor="#002466"
     bordercolor="#ffffff"
     borderopacity="0.32156863"
     inkscape:pageopacity="1"
     inkscape:pageshadow="2"
     inkscape:zoom="6.7493342"
     inkscape:cx="11"
     inkscape:cy="11"
     inkscape:document-units="px"
     inkscape:current-layer="svg8"
     inkscape:document-rotation="0"
     showgrid="false"
     units="px"
     inkscape:pagecheckerboard="false"
     borderlayer="true"
     inkscape:showpageshadow="false"
     inkscape:window-width="1920"
     inkscape:window-height="1051"
     inkscape:window-x="0"
     inkscape:window-y="0"
     inkscape:window-maximized="1"
     inkscape:object-paths="true" />
  <metadata
     id="metadata5">
    <rdf:RDF>
      <cc:Work
         rdf:about="">
        <dc:format>image/svg+xml</dc:format>
        <dc:type
           rdf:resource="http://purl.org/dc/dcmitype/StillImage" />
        <dc:title></dc:title>
        <cc:license
           rdf:resource="http://creativecommons.org/licenses/by/4.0/" />
        <dc:creator>
          <cc:Agent>
            <dc:title>PixelPimps &amp; CodePoets</dc:title>
          </cc:Agent>
        </dc:creator>
      </cc:Work>
      <cc:License
         rdf:about="http://creativecommons.org/licenses/by/4.0/">
        <cc:permits
           rdf:resource="http://creativecommons.org/ns#Reproduction" />
        <cc:permits
           rdf:resource="http://creativecommons.org/ns#Distribution" />
        <cc:requires
           rdf:resource="http://creativecommons.org/ns#Notice" />
        <cc:requires
           rdf:resource="http://creativecommons.org/ns#Attribution" />
        <cc:permits
           rdf:resource="http://creativecommons.org/ns#DerivativeWorks" />
      </cc:License>
    </rdf:RDF>
  </metadata>
  <path
     style="fill:#d0d0d0;stroke-width:0.30088505;stroke-linecap:round"
     d="M 2.9030706,-2.5000001e-8 C 1.6592673,-2.5000001e-8 0.64643277,1.0128344 0.64643271,2.2566381 v 0.2109722 h 0.0146916 V 5.8208334 H 5.1744006 V 2.2102125 H 5.1573585 C 5.1322887,0.98794253 4.1312086,-2.5000001e-8 2.9030706,-2.5000001e-8 Z m 0,0.421944335000001 c 0.9997141,4e-8 1.8053129,0.79465959 1.8299927,1.78826819 l -0.7678513,0 v 0.8157028 c 0,0.2959563 -0.2382379,0.5341941 -0.5341941,0.5341941 h -0.038703 c -0.2959562,0 -0.5341942,-0.2382378 -0.5341942,-0.5341941 V 2.639503 c 0,-0.095814 -0.077327,-0.1731421 -0.1731419,-0.1731421 -0.095814,0 -0.1731422,0.077327 -0.1731422,0.1731421 v 0.2344547 c 0,0.1682343 -0.1352731,0.3035078 -0.3035078,0.3035078 -0.1682345,0 -0.296807,-0.1354069 -0.3035078,-0.3035078 V 2.2102125 l -0.8340937,0 C 1.0954737,1.2166039 1.9033569,0.42194429 2.9030706,0.42194431 Z"
     id="rect4264"
     inkscape:connector-curvature="0"
     sodipodi:nodetypes="ssccccccssccssssssssssccs"
     inkscape:label="#" />
</svg>
